flutter/assets/close2.svg

<svg width="18" height="18" viewBox="0 0 18 18" fill="none" xmlns="http://www.w3.org/2000/svg">
<path fill-rule="evenodd" clip-rule="evenodd" d="M0.292893 0.292893C0.683417 -0.0976311 1.31658 -0.0976311 1.70711 0.292893L9 7.58579L16.2929 0.292893C16.6834 -0.0976311 17.3166 -0.0976311 17.7071 0.292893C18.0976 0.683417 18.0976 1.31658 17.7071 1.70711L10.4142 9L17.7071 16.2929C18.0976 16.6834 18.0976 17.3166 17.7071 17.7071C17.3166 18.0976 16.6834 18.0976 16.2929 17.7071L9 10.4142L1.70711 17.7071C1.31658 18.0976 0.683417 18.0976 0.292893 17.7071C-0.0976311 17.3166 -0.0976311 16.6834 0.292893 16.2929L7.58579 9L0.292893 1.70711C-0.0976311 1.31658 -0.0976311 0.683417 0.292893 0.292893Z" fill="#AED7FF"/>
</svg>

<svg width="18" height="18" version="1.1" viewBox="0 0 4.7625 4.7625" xml:space="preserve" xmlns="http://www.w3.org/2000/svg"><g transform="translate(-111.41 -125.01)"><g transform="matrix(.26458 0 0 .26458 111.41 125.01)" fill="none"><path d="m0.29289 0.29289c0.39052-0.39052 1.0237-0.39052 1.4142 0l7.2929 7.2929 7.2929-7.2929c0.3905-0.39052 1.0237-0.39052 1.4142 0 0.3905 0.39052 0.3905 1.0237 0 1.4142l-7.2929 7.2929 7.2929 7.2929c0.3905 0.3905 0.3905 1.0237 0 1.4142s-1.0237 0.3905-1.4142 0l-7.2929-7.2929-7.2929 7.2929c-0.39053 0.3905-1.0237 0.3905-1.4142 0-0.39052-0.3905-0.39052-1.0237 0-1.4142l7.2929-7.2929-7.2929-7.2929c-0.39052-0.39053-0.39052-1.0237 0-1.4142z" clip-rule="evenodd" fill="#aed7ff" fill-rule="evenodd"/></g></g></svg>
